X:0008
M:2/4
L:1/8
Q:1/4=96
K:D
df f(e/d/)|ce e(d/c/)|d>ef>g|aA A2 |
df f(e/d/)|ce e(d/c/)|dA`BG |FD D2:|

